apps/sim/public/landing/card-left.svg

<svg fill="none" height="328" viewBox="0 0 344 328" width="344" xmlns="http://www.w3.org/2000/svg"><path d="m322.641 326.586h12.867c4.418 0 8-3.582 8-8v-164.973c0-4.418-3.582-8-8-8h-107.226c-4.418 0-8-3.582-8-8v-187.613h-30v187.613c0 4.418-3.582 8-8 8h-339.282v172.973c0 4.418 3.582 8 8 8z" fill="#1c1c1c" stroke="#323232" stroke-opacity=".4"/></svg>

<svg width="344" height="328" viewBox="0 0 344 328" fill="none" xmlns="http://www.w3.org/2000/svg">
<path d="M322.641 326.586L335.508 326.586C339.926 326.586 343.508 323.004 343.508 318.586V153.613C343.508 149.195 339.926 145.613 335.508 145.613H228.282C223.864 145.613 220.282 142.031 220.282 137.613V-50H190.282V137.613C190.282 142.031 186.7 145.613 182.282 145.613H-157V318.586C-157 323.004 -153.418 326.586 -149 326.586H322.641Z" fill="#1C1C1C" stroke="#323232" stroke-opacity="0.4" stroke-width="1"/>
</svg>
